src/icons/editor/glyph/VectorPathIcon.svg

<svg width="24" height="24" viewBox="0 0 24 24" fill="none" xmlns="http://www.w3.org/2000/svg">
<path fill-rule="evenodd" clip-rule="evenodd" d="M6.0254 11.1798C6.0977 9.9866 6.32338 8.72437 6.68979 7.71674C6.91673 7.09267 7.17564 6.62791 7.43491 6.33624C7.68531 6.05454 7.87091 6 8 6C8.39475 6 8.89172 6.2695 9.48057 7.44721C10.05 8.5861 10.5279 10.2347 11.0299 12.2425C11.5279 14.2347 12.05 16.0861 12.7306 17.4472C13.3917 18.7695 14.3948 20 16 20C17.6643 20 18.6551 18.6969 19.1987 17.0662C19.6992 15.5646 19.9508 13.4675 19.9934 10.8316C21.1621 10.4216 22 9.30867 22 8C22 6.34315 20.6569 5 19 5C17.3431 5 16 6.34315 16 8C16 9.30368 16.8316 10.4131 17.9932 10.8269C17.9504 13.368 17.7065 15.2183 17.3013 16.4338C16.8449 17.8031 16.3357 18 16 18C15.6052 18 15.1083 17.7305 14.5194 16.5528C13.95 15.4139 13.4721 13.7653 12.9701 11.7575C12.4721 9.76525 11.95 7.9139 11.2694 6.55279C10.6083 5.2305 9.60525 4 8 4C7.12909 4 6.43969 4.44546 5.94009 5.00751C5.44936 5.55959 5.08327 6.28233 4.81021 7.03326C4.35592 8.28256 4.09807 9.78103 4.02314 11.1626C2.84588 11.5679 2 12.6852 2 14C2 15.6569 3.34315 17 5 17C6.65685 17 8 15.6569 8 14C8 12.7033 7.1773 11.5987 6.0254 11.1798ZM19 9C19.5523 9 20 8.55228 20 8C20 7.44772 19.5523 7 19 7C18.4477 7 18 7.44772 18 8C18 8.55228 18.4477 9 19 9ZM5 15C5.55228 15 6 14.5523 6 14C6 13.4477 5.55228 13 5 13C4.44772 13 4 13.4477 4 14C4 14.5523 4.44772 15 5 15Z" fill="currentColor"/>
</svg>

<svg xmlns="http://www.w3.org/2000/svg" width="24" height="24" fill="currentColor" viewBox="0 0 24 24">
  <path fill-rule="evenodd" d="M6.025 11.18c.073-1.193.298-2.456.665-3.463.227-.624.486-1.09.745-1.38C7.685 6.054 7.87 6 8 6c.395 0 .892.27 1.48 1.447.57 1.14 1.048 2.788 1.55 4.795.498 1.993 1.02 3.844 1.7 5.205C13.393 18.77 14.396 20 16 20c1.664 0 2.655-1.303 3.199-2.934.5-1.501.752-3.598.794-6.234a3.001 3.001 0 1 0-2-.005c-.043 2.541-.287 4.391-.692 5.607C16.845 17.804 16.336 18 16 18c-.395 0-.892-.27-1.48-1.447-.57-1.14-1.048-2.788-1.55-4.796-.498-1.992-1.02-3.843-1.7-5.204C10.607 5.23 9.604 4 8 4c-.87 0-1.56.445-2.06 1.008-.49.552-.857 1.274-1.13 2.025-.454 1.25-.712 2.748-.787 4.13A3.001 3.001 0 0 0 5 17a3 3 0 0 0 1.025-5.82ZM19 9a1 1 0 1 0 0-2 1 1 0 0 0 0 2ZM5 15a1 1 0 1 0 0-2 1 1 0 0 0 0 2Z" clip-rule="evenodd"/>
</svg>
